svg/movie.svg

<svg xmlns="http://www.w3.org/2000/svg" viewBox="0 0 54 64" enable-background="new 0 0 54 64"><style type="text/css">.st0{fill:#333333;}</style><title>movie</title><desc>Created with Sketch.</desc><path class="st0" d="M50 0h-46c-2.2 0-4 1.8-4 4v56c0 2.2 1.8 4 4 4h46c2.2 0 4-1.8 4-4v-56c0-2.2-1.8-4-4-4zm-42 59c0 .6-.4 1-1 1h-3c-.6 0-1-.4-1-1v-3c0-.6.4-1 1-1h3c.6 0 1 .4 1 1v3zm0-7c0 .6-.4 1-1 1h-3c-.6 0-1-.4-1-1v-3c0-.6.4-1 1-1h3c.6 0 1 .4 1 1v3zm0-7c0 .6-.4 1-1 1h-3c-.6 0-1-.4-1-1v-3c0-.6.4-1 1-1h3c.6 0 1 .4 1 1v3zm0-7c0 .6-.4 1-1 1h-3c-.6 0-1-.4-1-1v-3c0-.6.4-1 1-1h3c.6 0 1 .4 1 1v3zm0-9c0 .6-.4 1-1 1h-3c-.6 0-1-.4-1-1v-3c0-.6.4-1 1-1h3c.6 0 1 .4 1 1v3zm0-7c0 .6-.4 1-1 1h-3c-.6 0-1-.4-1-1v-3c0-.6.4-1 1-1h3c.6 0 1 .4 1 1v3zm0-7c0 .6-.4 1-1 1h-3c-.6 0-1-.4-1-1v-3c0-.6.4-1 1-1h3c.6 0 1 .4 1 1v3zm0-7c0 .6-.4 1-1 1h-3c-.6 0-1-.4-1-1v-3c0-.6.4-1 1-1h3c.6 0 1 .4 1 1v3zm34 50h-30v-23h30v23zm0-29h-30v-23h30v23zm9 30c0 .6-.4 1-1 1h-3c-.6 0-1-.4-1-1v-3c0-.6.4-1 1-1h3c.6 0 1 .4 1 1v3zm0-7c0 .6-.4 1-1 1h-3c-.6 0-1-.4-1-1v-3c0-.6.4-1 1-1h3c.6 0 1 .4 1 1v3zm0-7c0 .6-.4 1-1 1h-3c-.6 0-1-.4-1-1v-3c0-.6.4-1 1-1h3c.6 0 1 .4 1 1v3zm0-7c0 .6-.4 1-1 1h-3c-.6 0-1-.4-1-1v-3c0-.6.4-1 1-1h3c.6 0 1 .4 1 1v3zm0-9c0 .6-.4 1-1 1h-3c-.6 0-1-.4-1-1v-3c0-.6.4-1 1-1h3c.6 0 1 .4 1 1v3zm0-7c0 .6-.4 1-1 1h-3c-.6 0-1-.4-1-1v-3c0-.6.4-1 1-1h3c.6 0 1 .4 1 1v3zm0-7c0 .6-.4 1-1 1h-3c-.6 0-1-.4-1-1v-3c0-.6.4-1 1-1h3c.6 0 1 .4 1 1v3zm0-7c0 .6-.4 1-1 1h-3c-.6 0-1-.4-1-1v-3c0-.6.4-1 1-1h3c.6 0 1 .4 1 1v3z"/></svg>

<?xml version="1.0" encoding="utf-8"?>
<!-- Generator: Adobe Illustrator 21.0.0, SVG Export Plug-In . SVG Version: 6.00 Build 0)  -->
<svg version="1.1" id="Layer_1" xmlns="http://www.w3.org/2000/svg" xmlns:xlink="http://www.w3.org/1999/xlink" x="0px" y="0px"
	 viewBox="0 0 54 64" style="enable-background:new 0 0 54 64;" xml:space="preserve">
<style type="text/css">
	.st0{fill:#333333;}
</style>
<title>movie</title>
<desc>Created with Sketch.</desc>
<g>
	<path class="st0" d="M50,0H4C1.8,0,0,1.8,0,4v56c0,2.2,1.8,4,4,4h46c2.2,0,4-1.8,4-4V4C54,1.8,52.2,0,50,0z M8,59c0,0.6-0.4,1-1,1
		H4c-0.6,0-1-0.4-1-1v-3c0-0.6,0.4-1,1-1h3c0.6,0,1,0.4,1,1V59z M8,52c0,0.6-0.4,1-1,1H4c-0.6,0-1-0.4-1-1v-3c0-0.6,0.4-1,1-1h3
		c0.6,0,1,0.4,1,1V52z M8,45c0,0.6-0.4,1-1,1H4c-0.6,0-1-0.4-1-1v-3c0-0.6,0.4-1,1-1h3c0.6,0,1,0.4,1,1V45z M8,38c0,0.6-0.4,1-1,1H4
		c-0.6,0-1-0.4-1-1v-3c0-0.6,0.4-1,1-1h3c0.6,0,1,0.4,1,1V38z M8,29c0,0.6-0.4,1-1,1H4c-0.6,0-1-0.4-1-1v-3c0-0.6,0.4-1,1-1h3
		c0.6,0,1,0.4,1,1V29z M8,22c0,0.6-0.4,1-1,1H4c-0.6,0-1-0.4-1-1v-3c0-0.6,0.4-1,1-1h3c0.6,0,1,0.4,1,1V22z M8,15c0,0.6-0.4,1-1,1H4
		c-0.6,0-1-0.4-1-1v-3c0-0.6,0.4-1,1-1h3c0.6,0,1,0.4,1,1V15z M8,8c0,0.6-0.4,1-1,1H4C3.4,9,3,8.6,3,8V5c0-0.6,0.4-1,1-1h3
		c0.6,0,1,0.4,1,1V8z M42,58H12V35h30V58z M42,29H12V6h30V29z M51,59c0,0.6-0.4,1-1,1h-3c-0.6,0-1-0.4-1-1v-3c0-0.6,0.4-1,1-1h3
		c0.6,0,1,0.4,1,1V59z M51,52c0,0.6-0.4,1-1,1h-3c-0.6,0-1-0.4-1-1v-3c0-0.6,0.4-1,1-1h3c0.6,0,1,0.4,1,1V52z M51,45
		c0,0.6-0.4,1-1,1h-3c-0.6,0-1-0.4-1-1v-3c0-0.6,0.4-1,1-1h3c0.6,0,1,0.4,1,1V45z M51,38c0,0.6-0.4,1-1,1h-3c-0.6,0-1-0.4-1-1v-3
		c0-0.6,0.4-1,1-1h3c0.6,0,1,0.4,1,1V38z M51,29c0,0.6-0.4,1-1,1h-3c-0.6,0-1-0.4-1-1v-3c0-0.6,0.4-1,1-1h3c0.6,0,1,0.4,1,1V29z
		 M51,22c0,0.6-0.4,1-1,1h-3c-0.6,0-1-0.4-1-1v-3c0-0.6,0.4-1,1-1h3c0.6,0,1,0.4,1,1V22z M51,15c0,0.6-0.4,1-1,1h-3
		c-0.6,0-1-0.4-1-1v-3c0-0.6,0.4-1,1-1h3c0.6,0,1,0.4,1,1V15z M51,8c0,0.6-0.4,1-1,1h-3c-0.6,0-1-0.4-1-1V5c0-0.6,0.4-1,1-1h3
		c0.6,0,1,0.4,1,1V8z"/>
</g>
</svg>
